!!!OTL: Hongjun gege shang qianfang
!!!ARE: Asia, China,ÿNingxia Guyuan
!! I, 175, 1)
!!!SCT: C1840
!!!YEM: Copyright 1995, estate of Helmut Schaffrath.
**kern
*ICvox
*Ivox
*M2/4
*k[f#]
*G:
{16dd
16dd
16cc
16dd
8ee
16ee
16dd
=1
8cc
8ee
16dd
16cc
8a
=2
16dd
16dd
16dd
16dd
8e
8g
=3
2a}
=4
{16dd
16dd
16cc
16dd
8ee
16ee
16dd
=5
8cc
8ee
16dd
16cc
8a
=6
16dd
16dd
16e
16g
8a
16a
16e
=7
2d}
==
!!!AGN: Xiaodiao, Xin minge
!! Han
!!!ONB: ESAC (Essen Associative Code) Database: SENGANSU
!!!AMT: simple duple
!!!AIN: vox
!!!EED: Helmut Schaffrath
!!!EEV: 1.0
*-
